X:6398
T:Godess March,1st part. JNu.44
M:2/4
L:1/8
Q:150
S:James Nuttall MS,c1830,Rossendale,East Lancs.
R:March
O:England
A:East Lancashire
N:Wrongly numbered 43 inMS
Z:vmp.Manchester Morris Men
K:D
"primo"DF Ad|cB A2|Ac eg|fe d2|.f.f .g.g|.e.e .f.f|.d.d .e.e|.c.c d2::!
e2 d/c/B/A/|ee cA|a2 g/f/e/d/|aa fd|.f.f .g.g|.e.e .f.f|.d.d .e.e|.c.c d
